svg/24/message-check.svg

<svg width="24" height="24" viewBox="0 0 24 24" fill="currentColor" xmlns="http://www.w3.org/2000/svg"><path d="M4.71334 16.4185L3.63779 20.3622L7.58147 19.2866L8.101 19.5554C9.19238 20.1199 10.4223 20.4551 11.73 20.4958C12.0111 21.0361 12.3658 21.5319 12.7809 21.97C12.5232 21.9899 12.2628 22 12 22C10.3461 22 8.786 21.5985 7.41182 20.8877L3.18829 22.0395C2.44179 22.2431 1.75682 21.5582 1.96041 20.8117L3.11228 16.5881C2.40145 15.214 1.99996 13.6539 1.99996 12C1.99996 6.47715 6.47711 2 12 2C17.5228 2 22 6.47715 22 12C22 12.2628 21.9898 12.5232 21.9699 12.7809C21.5318 12.3658 21.036 12.0111 20.4958 11.73C20.3532 7.16052 16.604 3.5 12 3.5C7.30554 3.5 3.49996 7.30558 3.49996 12C3.49996 13.4085 3.84135 14.7328 4.44459 15.899L4.71334 16.4185Z"/><path fill-rule="evenodd" clip-rule="evenodd" d="M17.5 23C20.5376 23 23 20.5376 23 17.5C23 14.4624 20.5376 12 17.5 12C14.4624 12 12 14.4624 12 17.5C12 20.5376 14.4624 23 17.5 23ZM20.3536 16.3536C20.5488 16.1583 20.5488 15.8417 20.3536 15.6464C20.1583 15.4512 19.8417 15.4512 19.6464 15.6464L16.5 18.7929L14.8536 17.1464C14.6583 16.9512 14.3417 16.9512 14.1464 17.1464C13.9512 17.3417 13.9512 17.6583 14.1464 17.8536L16.1464 19.8536C16.2402 19.9473 16.3674 20 16.5 20C16.6326 20 16.7598 19.9473 16.8536 19.8536L20.3536 16.3536Z"/></svg>

<svg xmlns="http://www.w3.org/2000/svg" width="24" height="24" fill="currentColor" viewBox="0 0 24 24">
  <path d="m4.713 16.419-1.075 3.943 3.943-1.075.52.268a8.45 8.45 0 0 0 3.629.94 6.532 6.532 0 0 0 1.05 1.475 9.958 9.958 0 0 1-5.37-1.082L3.19 22.04a1 1 0 0 1-1.228-1.228l1.152-4.224A9.957 9.957 0 0 1 2 12C2 6.477 6.477 2 12 2s10 4.477 10 10c0 .263-.01.523-.03.78a6.52 6.52 0 0 0-1.474-1.05 8.5 8.5 0 1 0-16.051 4.169l.268.52Z"/>
  <path fill-rule="evenodd" d="M17.5 23a5.5 5.5 0 1 0 0-11 5.5 5.5 0 0 0 0 11Zm2.854-6.646a.5.5 0 0 0-.708-.708L16.5 18.793l-1.646-1.647a.5.5 0 0 0-.708.708l2 2a.5.5 0 0 0 .708 0l3.5-3.5Z" clip-rule="evenodd"/>
</svg>
